X: 1
T: Tommy Peoples' Jig
R: jig
Z: John Chambers <jc:trillian.mit.edu>
M: 6/8
L: 1/8
K: G
B \
| "G"dGF GDB, | G,3 DB,D | "Am"EcB ABA | "D7"FED cBA \
| "G"BdB G3 | "C"EGE CEG | "G"DGc "D7"BEF | AGF "G"G2 :|
|: A \
| "G"~B3 ~G3 | "Em"gfe BAG | "D7"~F3 ~f3 | "A7"ed^c "D7"d2=c \
| "G"BdB Ggf | "Am"ecA E3 | "G"DGc "D7"BEF | AGF "G"G2 :|
|: D \
| "G"GBd g3 | "C"ecB cBA | "G"BdB "A7"a2g | "D"fd^c def \
| "G"gdB Ggf | "Am"ecA E3 | "G"DGc "D7"BEF | AGF "G"G2 :|
